frontend/landing/src/assets/social/github.svg

<svg width="20" height="20" viewBox="0 0 20 20" fill="none" xmlns="http://www.w3.org/2000/svg">
  <path d="M9.99957 9.89641e-05C7.61764 -0.0104932 5.31014 0.829498 3.49244 2.36888C1.67474 3.90825 0.466218 6.04591 0.0844063 8.39707C-0.297406 10.7482 0.172572 13.1585 1.40974 15.1939C2.64691 17.2294 4.57002 18.7564 6.8329 19.5001C7.3329 19.5834 7.49957 19.2501 7.49957 19.0001V17.1668C4.74957 17.7501 4.16624 16.0001 4.16624 16.0001C3.66624 14.8334 2.99957 14.5001 2.99957 14.5001C2.16624 13.9168 3.0829 13.9168 3.0829 13.9168C4.0829 13.9168 4.66624 14.9168 4.66624 14.9168C5.49957 16.4168 6.99957 16.0001 7.49957 15.7501C7.66624 15.0834 7.91624 14.6668 8.16624 14.4168C5.91624 14.1668 3.5829 13.3334 3.5829 9.41677C3.5829 8.41677 3.99957 7.5001 4.66624 6.83343C4.5829 6.5001 4.16624 5.5001 4.74957 4.16677C4.74957 4.16677 5.5829 3.91677 7.49957 5.16677C9.13687 4.72432 10.8623 4.72432 12.4996 5.16677C14.4162 3.91677 15.2496 4.16677 15.2496 4.16677C15.8329 5.5001 15.4162 6.58343 15.3329 6.83343C15.9996 7.5001 16.4162 8.41677 16.4162 9.5001C16.4162 13.3334 13.9996 14.1668 11.8329 14.4168C12.1662 14.7501 12.4996 15.3334 12.4996 16.2501V19.0001C12.4996 19.2501 12.6662 19.5834 13.1662 19.5001C15.4291 18.7564 17.3522 17.2294 18.5894 15.1939C19.8266 13.1585 20.2965 10.7482 19.9147 8.39707C19.5329 6.04591 18.3244 3.90825 16.5067 2.36888C14.689 0.829498 12.3815 -0.0104932 9.99957 9.89641e-05Z" fill="#ADB0B8"/>
  <defs>
      <rect width="20" height="20" fill="white"/>
  </defs>
</svg>

<svg xmlns="http://www.w3.org/2000/svg" viewBox="0 0 20 20"><path fill="currentColor" d="M9.9996.0001a10 10 0 0 0-3.1667 19.5c.5.0833.6667-.25.6667-.5v-1.8333c-2.75.5833-3.3334-1.1667-3.3334-1.1667-.5-1.1667-1.1666-1.5-1.1666-1.5-.8334-.5833.0833-.5833.0833-.5833 1 0 1.5833 1 1.5833 1 .8334 1.5 2.3334 1.0833 2.8334.8333.1666-.6667.4166-1.0833.6666-1.3333-2.25-.25-4.5833-1.0834-4.5833-5 0-1 .4167-1.9167 1.0833-2.5834-.0833-.3333-.5-1.3333.0834-2.6666 0 0 .8333-.25 2.75 1a9.5833 9.5833 0 0 1 5 0c1.9166-1.25 2.75-1 2.75-1 .5833 1.3333.1666 2.4166.0833 2.6666.6667.6667 1.0833 1.5834 1.0833 2.6667 0 3.8333-2.4166 4.6667-4.5833 4.9167.3333.3333.6667.9166.6667 1.8333v2.75c0 .25.1666.5833.6666.5a10 10 0 0 0-3.1666-19.5Z"/></svg>
